assets/img/car-seat.svg

<svg width="55" height="55" viewBox="0 0 55 55" fill="none" xmlns="http://www.w3.org/2000/svg">
<path d="M16.0417 41.25C16.0417 41.25 9.16666 22.9167 9.16666 13.75C9.16666 4.58333 13.75 4.58333 13.75 4.58333H16.0417C16.0417 4.58333 18.3333 4.58333 18.3333 6.875C18.3333 9.16667 16.0417 9.16667 16.0417 13.75C16.0417 18.3333 22.9167 22.9167 22.9167 29.7917C22.9167 36.6667 16.0417 41.25 16.0417 41.25ZM27.5 38.9583C25.2083 38.9583 18.3333 44.6875 18.3333 44.6875C17.6458 45.1458 17.875 45.8333 18.3333 46.5208C18.3333 46.5208 20.625 50.6458 25.2083 50.6458H38.9583C41.4792 50.6458 43.5417 48.5833 43.5417 46.0625V43.7708C43.5417 41.25 41.4792 39.1875 38.9583 39.1875H27.5V38.9583Z" fill="#0074E8"/>
</svg>

<svg width="55" height="55" fill="none" xmlns="http://www.w3.org/2000/svg"><path d="M16.042 41.25s-6.875-18.333-6.875-27.5c0-9.167 4.583-9.167 4.583-9.167h2.292s2.291 0 2.291 2.292-2.291 2.292-2.291 6.875 6.875 9.167 6.875 16.042c0 6.875-6.875 11.458-6.875 11.458ZM27.5 38.958c-2.292 0-9.167 5.73-9.167 5.73-.687.458-.458 1.145 0 1.833 0 0 2.292 4.125 6.875 4.125h13.75a4.597 4.597 0 0 0 4.584-4.584v-2.291a4.597 4.597 0 0 0-4.584-4.584H27.5v-.229Z" fill="#0074E8"/></svg>
